X: 1
T: When Sick Is It Tea That You Want?
R: jig
M: 6/8
L: 1/8
K: Dmaj
|:A2 d dcB|ABA AFA|ABd ede|fdB ~B3|
|Add dcB|ABA AFA|ABd ede|1 fdc d2 B:|2 fdc dfg||
|:afd dcd|BGF G2 g|bge efd|cAA ABG|
|FAd fdB|ABA AFA|ABd ede|1fdc dfg:|2 fdc d2 B||


Tune 427	Setting 13286

